svg/Pictogram/pictograms-nps-parking.svg

<svg xmlns="http://www.w3.org/2000/svg" width="123.55" height="123.54" viewBox="-0.258 -0.548 123.547 123.539" enable-background="new -0.258 -0.548 123.547 123.539"><path d="m109.63 122.89c8.148 0 14.766-6.617 14.766-14.773v-94.02c0-8.156-6.617-14.75-14.766-14.75h-94.02c-8.156 0-14.758 6.594-14.758 14.75v94.02c0 8.156 6.602 14.773 14.758 14.773h94.02"/><path d="m15.617 1.84c-6.758 0-12.258 5.492-12.258 12.258v94.02c0 6.766 5.5 12.258 12.258 12.258h94.02c6.758 0 12.25-5.492 12.25-12.258v-94.02c0-6.766-5.492-12.258-12.25-12.258h-94.02"/><path d="m71.32 59.36c7.01 0 12.695-5.695 12.695-12.695 0-7.03-5.688-12.719-12.695-12.719l-18.727-.031v25.445h18.727m-.265-41.07c15.867 0 28.711 12.844 28.711 28.688 0 15.875-12.844 28.711-28.711 28.711l-18.461-.023v27.25h-16.539v-84.63h35" fill="#fff"/></svg>

<?xml version="1.0" encoding="iso-8859-1"?>
<!-- Generator: Adobe Illustrator 13.0.2, SVG Export Plug-In . SVG Version: 6.00 Build 14948)  -->
<!DOCTYPE svg PUBLIC "-//W3C//DTD SVG 1.1//EN" "http://www.w3.org/Graphics/SVG/1.1/DTD/svg11.dtd">
<svg version="1.1" id="Layer_1" xmlns="http://www.w3.org/2000/svg" xmlns:xlink="http://www.w3.org/1999/xlink" x="0px" y="0px"
	 width="123.547px" height="123.539px" viewBox="-0.258 -0.548 123.547 123.539"
	 style="enable-background:new -0.258 -0.548 123.547 123.539;" xml:space="preserve">
<g>
	<path style="fill:#000000;" d="M109.633,122.887c8.148,0,14.766-6.617,14.766-14.773V14.098c0-8.156-6.617-14.75-14.766-14.75
		H15.617c-8.156,0-14.758,6.594-14.758,14.75v94.016c0,8.156,6.602,14.773,14.758,14.773H109.633z"/>
	<path style="fill:#000000;" d="M15.617,1.84c-6.758,0-12.258,5.492-12.258,12.258v94.016c0,6.766,5.5,12.258,12.258,12.258h94.016
		c6.758,0,12.25-5.492,12.25-12.258V14.098c0-6.766-5.492-12.258-12.25-12.258H15.617z"/>
	<path style="fill:#FFFFFF;" d="M71.32,59.363c7.008,0,12.695-5.695,12.695-12.695c0-7.031-5.688-12.719-12.695-12.719
		l-18.727-0.031v25.445H71.32z M71.055,18.293c15.867,0,28.711,12.844,28.711,28.688c0,15.875-12.844,28.711-28.711,28.711
		l-18.461-0.023v27.25H36.055V18.293H71.055z"/>
</g>
</svg>
